source/docs/software/commandbased/diagrams/concurrent-commands.drawio.svg

<svg xmlns="http://www.w3.org/2000/svg" xmlns:xlink="http://www.w3.org/1999/xlink" width="611" height="271" viewBox="-0.5 -0.5 611 271" style="background-color:#fff"><defs><style>@import url(https://fonts.googleapis.com/css?family=Lato);</style></defs><path d="M0 90l30-50h120l-30 50z" fill="#e1d5e7" stroke="#9673a6" stroke-miterlimit="10" pointer-events="all"/><switch transform="translate(-.5 -.5)"><foreignObject style="text-align:left" pointer-events="none" width="100%" height="100%" requiredFeatures="http://www.w3.org/TR/SVG11/feature#Extensibility" overflow="visible"><div xmlns="http://www.w3.org/1999/xhtml" style="align-items:unsafe center;justify-content:unsafe center;width:148px;height:1px;padding-top:65px;margin-left:1px" display="flex"><div style="box-sizing:border-box;text-align:center" font-size="0"><div style="line-height:1.2;white-space:normal;word-wrap:normal" display="inline-block" font-size="14" font-family="Lato" color="#000" pointer-events="all">DriveToGoal</div></div></div></foreignObject><text x="75" y="69" font-family="Lato" font-size="14" text-anchor="middle">DriveToGoal</text></switch><path d="M220 130l30-50h120l-30 50z" fill="#e1d5e7" stroke="#9673a6" stroke-miterlimit="10" pointer-events="all"/><switch transform="translate(-.5 -.5)"><foreignObject style="text-align:left" pointer-events="none" width="100%" height="100%" requiredFeatures="http://www.w3.org/TR/SVG11/feature#Extensibility" overflow="visible"><div xmlns="http://www.w3.org/1999/xhtml" style="align-items:unsafe center;justify-content:unsafe center;width:148px;height:1px;padding-top:105px;margin-left:221px" display="flex"><div style="box-sizing:border-box;text-align:center" font-size="0"><div style="line-height:1.2;white-space:normal;word-wrap:normal" display="inline-block" font-size="14" font-family="Lato" color="#000" pointer-events="all">RaiseElevator</div></div></div></foreignObject><text x="295" y="109" font-family="Lato" font-size="14" text-anchor="middle">RaiseElevator</text></switch><path d="M440 90l30-50h120l-30 50z" fill="#e1d5e7" stroke="#9673a6" stroke-miterlimit="10" pointer-events="all"/><switch transform="translate(-.5 -.5)"><foreignObject style="text-align:left" pointer-events="none" width="100%" height="100%" requiredFeatures="http://www.w3.org/TR/SVG11/feature#Extensibility" overflow="visible"><div xmlns="http://www.w3.org/1999/xhtml" style="align-items:unsafe center;justify-content:unsafe center;width:148px;height:1px;padding-top:65px;margin-left:441px" display="flex"><div style="box-sizing:border-box;text-align:center" font-size="0"><div style="line-height:1.2;white-space:normal;word-wrap:normal" display="inline-block" font-size="14" font-family="Lato" color="#000" pointer-events="all">ScoreTube</div></div></div></foreignObject><text x="515" y="69" font-family="Lato" font-size="14" text-anchor="middle">ScoreTube</text></switch><path d="M230 50l30-50h120l-30 50z" fill="#e1d5e7" stroke="#9673a6" stroke-miterlimit="10" pointer-events="all"/><switch transform="translate(-.5 -.5)"><foreignObject style="text-align:left" pointer-events="none" width="100%" height="100%" requiredFeatures="http://www.w3.org/TR/SVG11/feature#Extensibility" overflow="visible"><div xmlns="http://www.w3.org/1999/xhtml" style="align-items:unsafe center;justify-content:unsafe center;width:148px;height:1px;padding-top:25px;margin-left:231px" display="flex"><div style="box-sizing:border-box;text-align:center" font-size="0"><div style="line-height:1.2;white-space:normal;word-wrap:normal" display="inline-block" font-size="14" font-family="Lato" color="#000" pointer-events="all">SetWristPosition</div></div></div></foreignObject><text x="305" y="29" font-family="Lato" font-size="14" text-anchor="middle">SetWristPosition</text></switch><path d="M158.74 85.38l3.47-10.44 41.2 13.73 3.32-9.96 12.8 21.13-22.92 9.23 3.32-9.96zm3.32-30.79l-3.17-9.49 41.03-13.68-3.32-9.96 22.93 8.7-13.13 20.71-3.32-9.96zm210 60l-3.17-9.49 41.03-13.68-3.32-9.96 22.93 8.7-13.13 20.71-3.32-9.96zm6.68-79.21l3.47-10.44 41.2 13.73 3.32-9.96 12.8 21.13-22.92 9.23 3.32-9.96z" fill="#e1d5e7" stroke="#9673a6" stroke-linejoin="round" stroke-miterlimit="10" pointer-events="all"/><path fill="none" stroke="#000" pointer-events="all" d="M160 190h200v80H160z"/><switch transform="translate(-.5 -.5)"><foreignObject style="text-align:left" pointer-events="none" width="100%" height="100%" requiredFeatures="http://www.w3.org/TR/SVG11/feature#Extensibility" overflow="visible"><div xmlns="http://www.w3.org/1999/xhtml" style="align-items:unsafe center;justify-content:unsafe center;width:198px;height:1px;padding-top:230px;margin-left:161px" display="flex"><div style="box-sizing:border-box;text-align:center" font-size="0"><div style="line-height:1.2;white-space:normal;word-wrap:normal" display="inline-block" font-size="16" font-family="Lato" color="#000" pointer-events="all">At this point the elevator and the wrist are both moving at the same time</div></div></div></foreignObject><text x="260" y="235" font-family="Lato" font-size="16" text-anchor="middle">At this point the elevato...</text></switch><path d="M273.5 189.5h-27v-18.99h-13L260 140.5l26.5 30.01h-13z" fill="#d5e8d4" stroke="#82b366" stroke-linejoin="round" stroke-miterlimit="10" pointer-events="all"/><path fill="none" stroke="#000" pointer-events="all" d="M380 190h230v80H380z"/><switch transform="translate(-.5 -.5)"><foreignObject style="text-align:left" pointer-events="none" width="100%" height="100%" requiredFeatures="http://www.w3.org/TR/SVG11/feature#Extensibility" overflow="visible"><div xmlns="http://www.w3.org/1999/xhtml" style="align-items:unsafe center;justify-content:unsafe center;width:228px;height:1px;padding-top:230px;margin-left:381px" display="flex"><div style="box-sizing:border-box;text-align:center" font-size="0"><div style="line-height:1.2;white-space:normal;word-wrap:normal" display="inline-block" font-size="16" font-family="Lato" color="#000" pointer-events="all">ScoreTube will only start after both SetWristPosition and RaiseElevator have finished</div></div></div></foreignObject><text x="495" y="235" font-family="Lato" font-size="16" text-anchor="middle">ScoreTube will only start aft...</text></switch><path d="M508.5 189.5h-27v-65.99h-13L495 93.5l26.5 30.01h-13z" fill="#d5e8d4" stroke="#82b366" stroke-linejoin="round" stroke-miterlimit="10" pointer-events="all"/><switch><a transform="translate(0 -5)" xlink:href="https://desk.draw.io/support/solutions/articles/16000042487" target="_blank"><text text-anchor="middle" font-size="10" x="50%" y="100%">Viewer does not support full SVG 1.1</text></a></switch></svg>

<?xml version="1.0" encoding="UTF-8"?>
<!DOCTYPE svg PUBLIC "-//W3C//DTD SVG 1.1//EN" "http://www.w3.org/Graphics/SVG/1.1/DTD/svg11.dtd">
<svg xmlns="http://www.w3.org/2000/svg" xmlns:xlink="http://www.w3.org/1999/xlink" version="1.1" width="611px" height="271px" viewBox="-0.5 -0.5 611 271" content="&lt;mxfile host=&quot;Electron&quot; modified=&quot;2020-04-26T21:09:03.968Z&quot; agent=&quot;5.0 (Macintosh; Intel Mac OS X 10_14_6) AppleWebKit/537.36 (KHTML, like Gecko) draw.io/13.0.1 Chrome/80.0.3987.163 Electron/8.2.1 Safari/537.36&quot; etag=&quot;YR5J3IqvTaHb0WnABv0C&quot; version=&quot;13.0.1&quot; type=&quot;device&quot;&gt;&lt;diagram id=&quot;C5RBs43oDa-KdzZeNtuy&quot; name=&quot;Page-1&quot;&gt;7Vldk9o2FP01PIaxJWzDI/vBpmma2XZJSZ46WvtiayJbVBZg+usr2TLYFnRhQ3Y3U5gdVrqSrqx7jo6uRQ9fp8WdIIvkNx4B6yEnKnr4pofQyPHVtzZsKoM/dCpDLGhUmdyd4YH+A8ZYd1vSCPJWR8k5k3TRNoY8yyCULRsRgq/b3eactWddkBgsw0NImG2d0UgmlXWIgp39PdA4qWd2/VHVkpK6s1lJnpCIr1smKOSEZ9I84kciec+7TaTUaxv30ET9zXV7P+Y8ZkAWNO+HPFXmMFddJnOSUqYDWw5VLvFtD18LzmVVSotrYBqOOtSzXzYz9vGbf/fh9/xv8vnq1+mnP99VDzM5Zcg2KgIy+WzXf02/+vPpp+hz8OH9F8iK8QTP3qHK9YqwpYHgRtAVTPkdJ8xEUm5qeFRQF7qonoQwBozHgqQ9fLUAQVOQILpt97uGq3VCJTwsSKg9rBV9lS2RKVM1VxXnlLFrzrgop8LgRh4Eyp5Lwb9Bo2XkB5j4eoQCa9LCpLIZWrsDVT8ycibCKxASigYVTSTvgKtViI3qYlrrfWX2Ga430HrHWtcztqTB2NpGDAvjrecdcqpgwDsBSM8C8g9Cc7hlsFKRERcoD0KJnQ6W3mtjGVhYPoRcwHT5CBccD+Loobe2J+sHaAIJciZoLu95TiXl2QXPw/vSbeOJglfH07fwPIjfnEEx1hmRihBkkSnehIzkOQ3buNQLct2qs4mu1x8NnoXaaYhA1MrJbDwa8f6vcAtgRKrcoZ0U7sHAzHDPqXq8LdxocECGaxc5X4oQzKhmntNxZOl50HEkiYhBWo4URGTT6LbQHXKLNNvAfAePbIE/C4/+r0xB52KKcxxTzsaD0YUH38GDgdeBb/hMHnidkwb7L8sDZOcJl3PlbCzxn9jkR7Okm192ZefVz5U6OA0ejfUCZEJzDZxZj0xAw7N9M3RIFm3Na52dlrc5uvbIFULISfmKZrG27sbnJNX/JE3tlxKV4ck2FS1SOeWnQ8OMZ8rDFWE0zjSpFc/KvFYnjTQkbGwaUhpFeq69Ca/gyywCHSfnQAY7mW7KvRR3stnTOX58Nts9tLa0bOwC5OzZBl1RO1s2i/APOn2eeGfwKx/1/R7yWuI06vtBQ7pQYCuV0qlhNNhHqiF6xP5Pq1T4EEVOzmu6jtw3p1QDi3uNKw4V79IFz9im5CMRpSTNtRpsRcl+lTZC1rn4chKy0k7nNKN5ooTholZPqlX30NyrVvhF1cq+4Hw5tSqo/KIR6num9tXgpcs3RbOyqStvSuEq5ThiQ74RKfSCDv8Gz03aAq+dtPn4xaRQVXc/DlXddz/a4dt/AQ==&lt;/diagram&gt;&lt;/mxfile&gt;" style="background-color: rgb(255, 255, 255);"><defs><style type="text/css">@import url(https://fonts.googleapis.com/css?family=Lato);&#xa;</style></defs><g><path d="M 0 90 L 30 40 L 150 40 L 120 90 Z" fill="#e1d5e7" stroke="#9673a6" stroke-miterlimit="10" pointer-events="all"/><g transform="translate(-0.5 -0.5)"><switch><foreignObject style="overflow: visible; text-align: left;" pointer-events="none" width="100%" height="100%" requiredFeatures="http://www.w3.org/TR/SVG11/feature#Extensibility"><div xmlns="http://www.w3.org/1999/xhtml" style="display: flex; align-items: unsafe center; justify-content: unsafe center; width: 148px; height: 1px; padding-top: 65px; margin-left: 1px;"><div style="box-sizing: border-box; font-size: 0; text-align: center; "><div style="display: inline-block; font-size: 14px; font-family: Lato; color: #000000; line-height: 1.2; pointer-events: all; white-space: normal; word-wrap: normal; ">DriveToGoal</div></div></div></foreignObject><text x="75" y="69" fill="#000000" font-family="Lato" font-size="14px" text-anchor="middle">DriveToGoal</text></switch></g><path d="M 220 130 L 250 80 L 370 80 L 340 130 Z" fill="#e1d5e7" stroke="#9673a6" stroke-miterlimit="10" pointer-events="all"/><g transform="translate(-0.5 -0.5)"><switch><foreignObject style="overflow: visible; text-align: left;" pointer-events="none" width="100%" height="100%" requiredFeatures="http://www.w3.org/TR/SVG11/feature#Extensibility"><div xmlns="http://www.w3.org/1999/xhtml" style="display: flex; align-items: unsafe center; justify-content: unsafe center; width: 148px; height: 1px; padding-top: 105px; margin-left: 221px;"><div style="box-sizing: border-box; font-size: 0; text-align: center; "><div style="display: inline-block; font-size: 14px; font-family: Lato; color: #000000; line-height: 1.2; pointer-events: all; white-space: normal; word-wrap: normal; ">RaiseElevator</div></div></div></foreignObject><text x="295" y="109" fill="#000000" font-family="Lato" font-size="14px" text-anchor="middle">RaiseElevator</text></switch></g><path d="M 440 90 L 470 40 L 590 40 L 560 90 Z" fill="#e1d5e7" stroke="#9673a6" stroke-miterlimit="10" pointer-events="all"/><g transform="translate(-0.5 -0.5)"><switch><foreignObject style="overflow: visible; text-align: left;" pointer-events="none" width="100%" height="100%" requiredFeatures="http://www.w3.org/TR/SVG11/feature#Extensibility"><div xmlns="http://www.w3.org/1999/xhtml" style="display: flex; align-items: unsafe center; justify-content: unsafe center; width: 148px; height: 1px; padding-top: 65px; margin-left: 441px;"><div style="box-sizing: border-box; font-size: 0; text-align: center; "><div style="display: inline-block; font-size: 14px; font-family: Lato; color: #000000; line-height: 1.2; pointer-events: all; white-space: normal; word-wrap: normal; ">ScoreTube</div></div></div></foreignObject><text x="515" y="69" fill="#000000" font-family="Lato" font-size="14px" text-anchor="middle">ScoreTube</text></switch></g><path d="M 230 50 L 260 0 L 380 0 L 350 50 Z" fill="#e1d5e7" stroke="#9673a6" stroke-miterlimit="10" pointer-events="all"/><g transform="translate(-0.5 -0.5)"><switch><foreignObject style="overflow: visible; text-align: left;" pointer-events="none" width="100%" height="100%" requiredFeatures="http://www.w3.org/TR/SVG11/feature#Extensibility"><div xmlns="http://www.w3.org/1999/xhtml" style="display: flex; align-items: unsafe center; justify-content: unsafe center; width: 148px; height: 1px; padding-top: 25px; margin-left: 231px;"><div style="box-sizing: border-box; font-size: 0; text-align: center; "><div style="display: inline-block; font-size: 14px; font-family: Lato; color: #000000; line-height: 1.2; pointer-events: all; white-space: normal; word-wrap: normal; ">SetWristPosition</div></div></div></foreignObject><text x="305" y="29" fill="#000000" font-family="Lato" font-size="14px" text-anchor="middle">SetWristPosition</text></switch></g><path d="M 158.74 85.38 L 162.21 74.94 L 203.41 88.67 L 206.73 78.71 L 219.53 99.84 L 196.61 109.07 L 199.93 99.11 Z" fill="#e1d5e7" stroke="#9673a6" stroke-linejoin="round" stroke-miterlimit="10" pointer-events="all"/><path d="M 162.06 54.59 L 158.89 45.1 L 199.92 31.42 L 196.6 21.46 L 219.53 30.16 L 206.4 50.87 L 203.08 40.91 Z" fill="#e1d5e7" stroke="#9673a6" stroke-linejoin="round" stroke-miterlimit="10" pointer-events="all"/><path d="M 372.06 114.59 L 368.89 105.1 L 409.92 91.42 L 406.6 81.46 L 429.53 90.16 L 416.4 110.87 L 413.08 100.91 Z" fill="#e1d5e7" stroke="#9673a6" stroke-linejoin="round" stroke-miterlimit="10" pointer-events="all"/><path d="M 378.74 35.38 L 382.21 24.94 L 423.41 38.67 L 426.73 28.71 L 439.53 49.84 L 416.61 59.07 L 419.93 49.11 Z" fill="#e1d5e7" stroke="#9673a6" stroke-linejoin="round" stroke-miterlimit="10" pointer-events="all"/><rect x="160" y="190" width="200" height="80" fill="none" stroke="#000000" pointer-events="all"/><g transform="translate(-0.5 -0.5)"><switch><foreignObject style="overflow: visible; text-align: left;" pointer-events="none" width="100%" height="100%" requiredFeatures="http://www.w3.org/TR/SVG11/feature#Extensibility"><div xmlns="http://www.w3.org/1999/xhtml" style="display: flex; align-items: unsafe center; justify-content: unsafe center; width: 198px; height: 1px; padding-top: 230px; margin-left: 161px;"><div style="box-sizing: border-box; font-size: 0; text-align: center; "><div style="display: inline-block; font-size: 16px; font-family: Lato; color: #000000; line-height: 1.2; pointer-events: all; white-space: normal; word-wrap: normal; ">At this point the elevator and the wrist are both moving at the same time</div></div></div></foreignObject><text x="260" y="235" fill="#000000" font-family="Lato" font-size="16px" text-anchor="middle">At this point the elevato...</text></switch></g><path d="M 273.5 189.5 L 246.5 189.5 L 246.5 170.51 L 233.5 170.51 L 260 140.5 L 286.5 170.51 L 273.5 170.51 Z" fill="#d5e8d4" stroke="#82b366" stroke-linejoin="round" stroke-miterlimit="10" pointer-events="all"/><rect x="380" y="190" width="230" height="80" fill="none" stroke="#000000" pointer-events="all"/><g transform="translate(-0.5 -0.5)"><switch><foreignObject style="overflow: visible; text-align: left;" pointer-events="none" width="100%" height="100%" requiredFeatures="http://www.w3.org/TR/SVG11/feature#Extensibility"><div xmlns="http://www.w3.org/1999/xhtml" style="display: flex; align-items: unsafe center; justify-content: unsafe center; width: 228px; height: 1px; padding-top: 230px; margin-left: 381px;"><div style="box-sizing: border-box; font-size: 0; text-align: center; "><div style="display: inline-block; font-size: 16px; font-family: Lato; color: #000000; line-height: 1.2; pointer-events: all; white-space: normal; word-wrap: normal; ">ScoreTube will only start after both SetWristPosition and RaiseElevator have finished</div></div></div></foreignObject><text x="495" y="235" fill="#000000" font-family="Lato" font-size="16px" text-anchor="middle">ScoreTube will only start aft...</text></switch></g><path d="M 508.5 189.5 L 481.5 189.5 L 481.5 123.51 L 468.5 123.51 L 495 93.5 L 521.5 123.51 L 508.5 123.51 Z" fill="#d5e8d4" stroke="#82b366" stroke-linejoin="round" stroke-miterlimit="10" pointer-events="all"/></g><switch><g requiredFeatures="http://www.w3.org/TR/SVG11/feature#Extensibility"/><a transform="translate(0,-5)" xlink:href="https://desk.draw.io/support/solutions/articles/16000042487" target="_blank"><text text-anchor="middle" font-size="10px" x="50%" y="100%">Viewer does not support full SVG 1.1</text></a></switch></svg>
